svg/u1f5a8.svg

<svg viewBox="0 0 128 128" xmlns="http://www.w3.org/2000/svg">
  <g>
    <path d="M98.27,44.34H29.73l4.48-27.88c0-1.9,1.54-3.45,3.45-3.45h52.97c1.9,0,3.45,1.54,3.45,3.45 L98.27,44.34z" fill="#757575"/>
    <path d="M92.94,41.9H35.06l3.78-23.55c0-1.61,1.3-2.91,2.91-2.91h44.74c1.61,0,2.91,1.3,2.91,2.91 L92.94,41.9z" fill="#424242"/>
    <path d="M94.54,29.91H33.57c-2.46,0-4.56,1.77-4.98,4.19l-1.79,10.28h74.38l-1.67-10.23 C99.13,31.7,97.01,29.91,94.54,29.91z" fill="#424242"/>
    <linearGradient id="SVGID_1_" gradientUnits="userSpaceOnUse" x1="64.6842" x2="64.6842" y1="30.8268" y2="2.1371">
      <stop offset="0.5664" stop-color="#EEEEEE"/>
      <stop offset="1" stop-color="#E0E0E0"/>
    </linearGradient>
    <path d="M39.83,38.74h50.69c0,0,2.69-18-1.78-34.47H38.05C41.37,19.74,39.83,38.74,39.83,38.74z" fill="url(#SVGID_1_)"/>
    <polygon points="39.01,43.56 90.06,42.92 90.8,36.91 40.17,36.91 " fill="#BDBDBD"/>
    <path d="M119.16,90.78H14.88c-5.6,0-6.27-10.22-5.99-16.69c0.07-1.52,0.33-3.01,0.77-4.47l6.91-23.25 c0,0,1.93-6.86,8.05-6.86h77.47c4.73,0,6.64,5.31,6.64,5.31l9,23.06c0.84,2.16,1.29,4.46,1.3,6.79L119.16,90.78z" fill="#CFD8DC"/>
    <path d="M110.89,111.17H17.11c-4.55,0-8.24-3.69-8.24-8.24V76.05c0-3.5,2.84-6.34,6.34-6.34h97.58 c3.5,0,6.34,2.84,6.34,6.34v26.88C119.13,107.48,115.44,111.17,110.89,111.17z" fill="#90A4AE"/>
    <path d="M92.1,39.51H36.39l-8.8,30.2v7.26c0,3.57,2.9,6.47,6.47,6.47h59.9c3.57,0,6.47-2.9,6.47-6.47v-7.26 L92.1,39.51z" fill="#607D8B"/>
    <path d="M31.52,64.93l6.53-25.42h52.43l6.19,25.5c0.83,3.56-1.59,4.7-4.89,4.7H36.39 C33.06,69.71,30.64,68.52,31.52,64.93z" fill="#90A4AE"/>
    <circle cx="109.93" cy="79.84" r="3.45" fill="#424242"/>
    <circle cx="109.93" cy="79.25" r="3.45" fill="#99D45B"/>
    <path d="M106.24,118.59l-7.37-24.29H64H29.13l-7.37,24.29c-0.71,2.6,1.8,5.13,5.01,5.13H64h37.24 C104.44,123.73,106.96,121.2,106.24,118.59z" fill="#616161"/>
    <path d="M96.5,100.95c-0.37-1.8,1.09-2.35,1.58-2.5c1.15-0.36,2.1,0.21,2.1,0.21l-1.24-4.36H29.06 l-1.24,4.36c0,0,0.95-0.57,2.1-0.21c0.49,0.15,1.95,0.7,1.58,2.5c-0.32,1.57-1.6,7.68-1.6,7.68c-0.55,2.51-0.88,5.07-1.33,7.6 c0,1.44,1.32,2.6,2.95,2.6h64.94c1.63,0,2.95-1.16,2.95-2.6c-0.44-2.53-0.78-5.09-1.33-7.6C98.09,108.63,96.82,102.52,96.5,100.95z " fill="#212121"/>
    <path d="M55.4,106.09c0,0-20.05,7.62,4.29,7.62s34.75-6.67,34.75-6.67l-5.63-5.46l-28.07,2.61L55.4,106.09z" fill="#BDBDBD"/>
    <path d="M93.06,97.59H37.07l-4.76,15.85c0,0,15.89,0.26,27.39,0.26s26.07-9.34,26.07-9.34 s9.51,5.68,8.98,1.46C94.13,101,93.06,97.59,93.06,97.59z" fill="#FFFFFF"/>
    <polygon points="93.49,99.14 92.74,96.14 37.39,96.35 36.62,99.14 " fill="#BDBDBD"/>
    <g>
      <polygon points="81.69,106.72 38.44,106.72 38.13,107.75 79.65,107.75 " fill="#9E9E9E"/>
      <path d="M39.75,102.35l-0.31,1.03h50.15c-0.05-0.35-0.1-0.7-0.15-1.03H39.75z" fill="#9E9E9E"/>
      <path d="M88.58,98.13H41.02l-0.31,1.03h48.12C88.74,98.77,88.66,98.43,88.58,98.13z" fill="#757575"/>
    </g>
    <path d="M66.96,85.5h-5.92c-1.36,0-2.47-1.1-2.47-2.47v-0.4c0-1.36,1.1-2.47,2.47-2.47h5.92 c1.36,0,2.47,1.1,2.47,2.47v0.4C69.43,84.4,68.32,85.5,66.96,85.5z" fill="#607D8B"/>
    <path d="M93.87,90.44H34.13c-2.94,0-5.32,2.38-5.32,5.32v0h70.37v0C99.19,92.82,96.8,90.44,93.87,90.44z" fill="#212121"/>
  </g>
</svg>

<svg viewBox="0 0 128 128" xmlns="http://www.w3.org/2000/svg">
  <defs>
    <linearGradient id="SVGID_1_" gradientUnits="userSpaceOnUse" x1="64.6842" x2="64.6842" y1="30.8268" y2="2.1371">
      <stop offset="0.5664" stop-color="#EEEEEE"/>
      <stop offset="1" stop-color="#E0E0E0"/>
    </linearGradient>
  </defs>
  <path d="M98.27,44.34 L29.73,44.34 L34.21,16.46 C34.21,14.56 35.75,13.01 37.66,13.01 L90.63,13.01 C92.53,13.01 94.08,14.55 94.08,16.46 L98.27,44.34 Z" fill="#757575"/>
  <path d="M92.94,41.9 L35.06,41.9 L38.84,18.35 C38.84,16.74 40.14,15.44 41.75,15.44 L86.49,15.44 C88.1,15.44 89.4,16.74 89.4,18.35 L92.94,41.9 Z" fill="#424242"/>
  <path d="M94.54,29.91 L33.57,29.91 C31.11,29.91 29.01,31.68 28.59,34.1 L26.8,44.38 L101.18,44.38 L99.51,34.15 C99.13,31.7 97.01,29.91 94.54,29.91 Z" fill="#424242"/>
  <path d="M39.83,38.74 L90.52,38.74 C90.52,38.74 93.21,20.74 88.74,4.27 L38.05,4.27 C41.37,19.74 39.83,38.74 39.83,38.74 Z" fill="url(#SVGID_1_)"/>
  <path d="M39.01,43.56 L90.06,42.92 L90.8,36.91 L40.17,36.91 Z" fill="#BDBDBD"/>
  <path d="M119.16,90.78 L14.88,90.78 C9.28,90.78 8.61,80.56 8.89,74.09 C8.96,72.57 9.22,71.08 9.66,69.62 L16.57,46.37 C16.57,46.37 18.5,39.51 24.62,39.51 L102.09,39.51 C106.82,39.51 108.73,44.82 108.73,44.82 L117.73,67.88 C118.57,70.04 119.02,72.34 119.03,74.67 L119.16,90.78 Z" fill="#CFD8DC"/>
  <path d="M110.89,111.17 L17.11,111.17 C12.56,111.17 8.87,107.48 8.87,102.93 L8.87,76.05 C8.87,72.55 11.71,69.71 15.21,69.71 L112.79,69.71 C116.29,69.71 119.13,72.55 119.13,76.05 L119.13,102.93 C119.13,107.48 115.44,111.17 110.89,111.17 Z" fill="#90A4AE"/>
  <path d="M92.1,39.51 L36.39,39.51 L27.59,69.71 L27.59,76.97 C27.59,80.54 30.49,83.44 34.06,83.44 L93.96,83.44 C97.53,83.44 100.43,80.54 100.43,76.97 L100.43,69.71 L92.1,39.51 Z" fill="#607D8B"/>
  <path d="M31.52,64.93 L38.05,39.51 L90.48,39.51 L96.67,65.01 C97.5,68.57 95.08,69.71 91.78,69.71 L36.39,69.71 C33.06,69.71 30.64,68.52 31.52,64.93 Z" fill="#90A4AE"/>
  <path d="M113.38,79.84 A3.45 3.45 0 1 1 106.48,79.84 A3.45 3.45 0 1 1 113.38,79.84 Z" fill="#424242"/>
  <path d="M113.38,79.25 A3.45 3.45 0 1 1 106.48,79.25 A3.45 3.45 0 1 1 113.38,79.25 Z" fill="#99D45B"/>
  <path d="M106.24,118.59 L98.87,94.3 L64,94.3 L29.13,94.3 L21.76,118.59 C21.05,121.19 23.56,123.72 26.77,123.72 L64,123.72 L101.24,123.72 C104.44,123.73 106.96,121.2 106.24,118.59 Z" fill="#616161"/>
  <path d="M96.5,100.95 C96.13,99.15 97.59,98.6 98.08,98.45 C99.23,98.09 100.18,98.66 100.18,98.66 L98.94,94.3 L29.06,94.3 L27.82,98.66 C27.82,98.66 28.77,98.09 29.92,98.45 C30.41,98.6 31.87,99.15 31.5,100.95 C31.18,102.52 29.9,108.63 29.9,108.63 C29.35,111.14 29.02,113.7 28.57,116.23 C28.57,117.67 29.89,118.83 31.52,118.83 L96.46,118.83 C98.09,118.83 99.41,117.67 99.41,116.23 C98.97,113.7 98.63,111.14 98.08,108.63 C98.09,108.63 96.82,102.52 96.5,100.95 Z" fill="#212121"/>
  <path d="M55.4,106.09 C55.4,106.09 35.35,113.71 59.69,113.71 C84.03,113.71 94.44,107.04 94.44,107.04 L88.81,101.58 L60.74,104.19 L55.4,106.09 Z" fill="#BDBDBD"/>
  <path d="M93.06,97.59 L37.07,97.59 L32.31,113.44 C32.31,113.44 48.2,113.7 59.7,113.7 C71.2,113.7 85.77,104.36 85.77,104.36 C85.77,104.36 95.28,110.04 94.75,105.82 C94.13,101 93.06,97.59 93.06,97.59 Z" fill="#FFFFFF"/>
  <path d="M93.49,99.14 L92.74,96.14 L37.39,96.35 L36.62,99.14 Z" fill="#BDBDBD"/>
  <path d="M81.69,106.72 L38.44,106.72 L38.13,107.75 L79.65,107.75 Z" fill="#9E9E9E"/>
  <path d="M39.75,102.35 L39.44,103.38 L89.59,103.38 C89.54,103.03 89.49,102.68 89.44,102.35 L39.75,102.35 Z" fill="#9E9E9E"/>
  <path d="M88.58,98.13 L41.02,98.13 L40.71,99.16 L88.83,99.16 C88.74,98.77 88.66,98.43 88.58,98.13 Z" fill="#757575"/>
  <path d="M66.96,85.5 L61.04,85.5 C59.68,85.5 58.57,84.4 58.57,83.03 L58.57,82.63 C58.57,81.27 59.67,80.16 61.04,80.16 L66.96,80.16 C68.32,80.16 69.43,81.26 69.43,82.63 L69.43,83.03 C69.43,84.4 68.32,85.5 66.96,85.5 Z" fill="#607D8B"/>
  <path d="M93.87,90.44 L34.13,90.44 C31.19,90.44 28.81,92.82 28.81,95.76 L28.81,95.76 L99.18,95.76 L99.18,95.76 C99.19,92.82 96.8,90.44 93.87,90.44 Z" fill="#212121"/>
</svg>
